Adwaita++-Dark/actions/16/path-offset-linked.svg

<svg viewBox="0 0 16 16" xmlns="http://www.w3.org/2000/svg">
  <g fill="#e6ddff">
    <path d="m14.003906 2a12.00001 12.00001 0 0 0 -7.9218748 3h.921875v.5253906a11 11 0 0 1 6.9999998-2.5253906zm-8.9999998 4.0859375a12.00001 12.00001 0 0 0 -3 7.9140625h1a11 11 0 0 1 2.5214844-7h-.5214844zm8.9999998 1.9140625a6 6 0 0 0 -5.9999998 6h1a5 5 0 0 1 4.9999998-5z"/>
    <path d="m4 4v4h4v-4zm1 1h2v2h-2z"/>
  </g>
</svg>

<svg xmlns="http://www.w3.org/2000/svg" viewBox="0 0 16 16">
 <defs>
  <style id="current-color-scheme" type="text/css">
   .ColorScheme-Text { color:#E6DDFF; } .ColorScheme-Highlight { color:#f34f17; }
  </style>
 </defs>
 <path fill="#E6DDFF" class="ColorScheme-Text" d="M 14.003906 2 A 12.00001 12.00001 0 0 0 6.0820312 5 L 7.0039062 5 L 7.0039062 5.5253906 A 11 11 0 0 1 14.003906 3 L 14.003906 2 z M 5.0039062 6.0859375 A 12.00001 12.00001 0 0 0 2.0039062 14 L 3.0039062 14 A 11 11 0 0 1 5.5253906 7 L 5.0039062 7 L 5.0039062 6.0859375 z M 14.003906 8 A 6 6 0 0 0 8.0039062 14 L 9.0039062 14 A 5 5 0 0 1 14.003906 9 L 14.003906 8 z"/>
 <path fill="#E6DDFF" class="ColorScheme-Highlight" d="M 4,4 4,8 8,8 8,4 Z M 5,5 7,5 7,7 5,7 Z"/>
</svg>
